X:1
T: Regalia of Scotland
C:
R:Strathspey
Q: 128
K:D
M:4/4
L:1/16
|:A2|df3 d3A Bd3 A3F|G3A BAGF Ee3 e3g|f3d e3c d3B AGFE|D3d cdef d4 d2A2|
df3 d3A Bd3 A3F|G3A BAGF Ee3 e3g|f3d e3c d3B AGFE|D3d cdef d4 d2A2|
FA3 D3A Fd3 A3F|GB3 B,3E C3D E2G2|FA3 D3E Fd3 Af3|Gg3 g3f efed cdcB|
A3F D3E Fd3 A3F|GB3 B,3E DEDC B,CB,A,|DEFG BAGF GABc edcB|Ad3 f3e d4 d2:|
